X: 2
T:Ianthe (Princess Royal)
M:4/4
L:1/4
S:Simpson (BBBM)
K:GMin
B/A/|Ggg>^f|g3 g/a/|bff>_e|dBBc/d/|_e/d/c/B/ B>A|A3:||!
a|b>d d3/4f/4 e3/4g/4|f2e>f|d>_e c>B|B3 B/A/|!
Gcc>b|c3 f/_e/|db^f>g|g3:||
